X: 1
T: Pat McKenna's
M: 6/8
L: 1/8
R: jig
K: Emin
|:D|EFE {A} EDB,|EDE GAB|edB {c} BAF|dAF AGF|
((3EFG) F EDB,|EDE GAB|edB AFA|dAF E2:|
|:d|efe {a} edB|baf edB|A2d AFA|dAF AGF|
EB,E {A} EB,E|DA,D {A}DA,D|DA,D dAF|EFD E2:|
